X:1
T:James Gibb editions
T:Los Reyes siguen la estrella - Guerrero
T:#
%%score [ 1 2 3 4 ]
L:1/8
Q:1/4=120
M:3/4
K:F
V:1 treble nm="Soprano" snm="S"
V:2 treble nm="Alto" snm="A"
V:3 treble-8 nm="Tenor" snm="T"
V:4 bass nm="Bass" snm="B"
V:1
"^Los Reyes siguen la estrella""^Francisco Guerrero\n(1528-99)" z6 | F6 | A4 A2 | c6- | c2 B2 A2 | %5
w: |Los|Re- yes|si\-|* guen la~~es-|
w: |||||
w: |Gui-|a- dos|son|* de~~u- na~~es-|
 G6 | F6 | z2 c4 | d2 e2 f2- | f2 e4 | d6 | c6 | z6 | z6 | z2 c2 c2 | d6 | B6- | B2 c2 B2 | A6 | %19
w: tre-|lla,|la~~es-|tre- lla si\-|* gue~~al|Se-|ñor,|||||de\-|* llos y|de-|
w: |||||||||y~~el Se-|ñor||||
w: tre-|lla,|la~es-|tre- lla de|* su|Se-|ñor,||||||||
 G6 | z6 | d4 A2 | B4 d2 | c4 B2 | A6 | z6 | z6 | c4 G2 | A4 c2 | B4 A2 | G2 B2 F2 | G4 B2 | %32
w: lla||si- gue~~y|bus- ca~~al|pe- ca-|dor,|||si- gue~~y|bus- ca~~al|pe- ca-|dor, si- gue~~y|bus- ca~~al|
w: |||||||||||||
w: |||||||||||||
 A4 F2- | F2 E4 | F16!fine! |] c6 | d6 | d4 d2 | f4 c2 | d6 | e6 | z2 e2 f2 | d4 d2 | c6- | %44
w: pe\- *|* ca-|dor.|Te-|nien-|do de|Dios no-|ti-|cía,|bus- can|con di-|vi\-|
w: ||||||||||||
w: ||||||||||||
 c2 =B4 | c4 c2 | z2 A4 | c4 c2 | A2 B2 c2 | d6 | G4 B2 | B6 | A4 c2 | B6 | G6 | F6 | F16!D.C.! |] %57
w: * no|ze- lo,|la~~es-|tre- lla~~al|sol de jus-|ti-|cia, los|Re-|yes al|Rey|del|cie-|lo.|
w: |||||||||||||
w: |||||||||||||
V:2
 C6 | D4 D2 | F6- | F2 E2 D2 | (C4 F2- | F2 E4) | F6 | z6 | z4 F2 | G4 G2 | B4 B2 | G2 A4 | %12
w: Los|Re- yes|si\-|* guen la~es-|tre\- *||lla,||la~~es-|tre- lla|si- gue~~al|Se- ñor,|
w: ||||||||||||
w: Gui-|a- dos|son|* de~~u- na~~es-|tre\- *||lla,||la~~es-|tre- lla|de su|Se- ñor,|
 G4 F2- | F2 G4 | A6 | z2 F2 F2 | G4 G2- | G2 E2 G2 | ^F6 | G4 B2- | B2 A2 G2 | (^F3 E F2) | %22
w: si- gue~~al|* Se-|ñor,||ñor de\-|* llos y|de-|lla, de\-|* llos y|de\- * *|
w: |||y~~el Se-|||||||
w: de su|* Se-|ñor,||||||||
 G2 G2 D2 | E4 G2 | F4 E2 | D6 | G4 D2 | F4 G2 | F4 E2 | D2 D2 A,2 | D4 D2 | C4 B,2 | C2 A,2 D2- | %33
w: lla si- gue~~y|bus- ca~~al|pe- ca-|dor,|si- gue~~y|bus- ca~~al|pe- ca-|dor, si- gue~~y|bus- ca~~al|pe- ca-|dor, al pe\-|
w: |||||||||||
w: |||||||||||
 D2 C4 | C16 |] F6 | F6 | F4 F2 | A4 A2 | F6 | G6 | z2 G2 A2 | F4 D2 | G6- | G2 G4 | E4 E2 | %46
w: * ca-|dor.|Te-|nien-|do de|Dios no-|ti-|cía,|bus- can|con di-|vi\-|* no|ze- lo,|
w: |||||||||||||
w: |||||||||||||
 z2 F4 | G4 A2 | F2 F2 E2 | (D3 E F2) | _E4 G2 | G6 | F4 F2 | F6- | F2 E4 | F6 | F16 |] %57
w: la~~es-|tre- lla~~al|sol de jus-|ti\- * *|cia, los|Re-|yes al|Rey|* del|cie-|lo.|
w: |||||||||||
w: |||||||||||
V:3
 z6 | z6 | z6 | F6 | A4 A2 | c6- | c2 B2 A2 | G6 | F6 | z2 c4 | d2 e2 f2 | e2 f4 | d4 d2 | c2 B4 | %14
w: |||Los|Re- yes|si\-|* guen la~~es-|tre-|lla,|la~~es-|tre- lla si-|gue~~al Se-|ñor, si-|gue~~al Se-|
w: ||||||||||||||
w: |||Gui-|a- dos|son|* de~~u- na~~es-|tre-|lla,|la~~es-|tre- lla de|su Se-|ñor, de|su Se-|
 c2 f2 f2 | f4 d2- | d2 d4 | z2 c2 c2 | d6 | B6- | B2 c2 B2 | A6 | G6 | z6 | d4 A2 | B4 d2 | %26
w: ñor, * *||* llos,|y~~el Se-|ñor|de\-|* llos y|de-|lla,||si- gue~~y|bus- ca~~al|
w: * y~~el Se-|ñor de\-|||||||||||
w: ñor, * *||||||||||||
 c4 B2 | A4 z2 | d4 A2 | B4 c2 | B4 A2 | G2 c2 G2 | A2 c2 B2- | B2 G4 | F16 |] A6 | B6 | A4 A2 | %38
w: pe- ca-|dor,|si- gue~~y|bus- ca~~al|pe- ca-|dor, si- gue~~y|bus- ca~~al pe\-|* ca-|dor,|Te-|nien-|do de|
w: ||||||||||||
w: ||||||||||||
 d4 A2 | A6 | c6 | c4 A2 | B4 f2 | e6 | d6 | c4 c2 | z2 c4 | e4 f2 | c2 F2 G2 | B6 | B4 _e2 | _e6 | %52
w: Dios no-|ti-|cía,|bus- can|con di-|vi-|no|ze- lo,|la~~es-|tre- lla~~al|sol de jus-|ti-|cia, los|Re-|
w: ||||||||||||||
w: ||||||||||||||
 c4 c2 | d6 | c6 | c6 | c16 |] %57
w: yes al|Rey|del|cie-|lo.|
w: |||||
w: |||||
V:4
 z6 | z6 | z6 | z6 | z6 | z2 C,4 | D,2 D,2 F,2- | F,2 E,4 | D,6 | C,6 | B,,6 | z2 F,4 | %12
w: |||||Los|Re- yes si\-|* guen|la~~es-|tre-|lla.|la~~es-|
w: ||||||||||||
w: |||||Gui|a- dos son|* de~~u-|na~~es-|tre-|lla.|la~~es-|
 G,3 A, B,2 | A,2 G,4 | F,2 F,2 F,2 | B,6 | G,4 G,2 | z6 | z2 D,2 D,2 | G,4 G,2- | G,2 F,2 G,2 | %21
w: tre- lla si-|gue~~al Se-|ñor, * *||de- llos,||y~~el Se-|ñor de\-|* llos y|
w: ||* y~~el Se-|ñor||||||
w: tre- lla de|su Se-|ñor, * *|||||||
 D,6 | G,6 | z6 | z6 | G,4 D,2 | E,4 G,2 | F,4 E,2 | D,4 z2 | z6 | G,4 D,2 | C,4 G,2 | F,4 B,,2- | %33
w: de-|lla,|||si- gue~~y|bus- ca~~al|pe- ca-|dor,||si- gue~~y|bus- ca~~al|pe\- *|
w: ||||||||||||
w: ||||||||||||
 B,,2 C,4 | F,16 |] F,6 | B,,6 | D,4 D,2 | D,4 F,2 | D,6 | C,6 | C,4 F,2 | B,,4 B,,2 | C,6 | G,6 | %45
w: * ca-|dor.|Te-|nien-|do de|Dios no-|ti-|cía,|bus- can|con di-|vi-|no|
w: ||||||||||||
w: ||||||||||||
 C,4 C,2 | z2 F,4 | C,4 F,2 | F,2 D,2 C,2 | B,,6 | _E,4 E,2 | _E,6 | F,4 F,2 | B,,6 | C,6 | F,6 | %56
w: ze- lo,|la~~es-|tre- lla~~al|sol de jus-|ti-|cia, los|Re-|yes al|Rey|del|cie-|
w: |||||||||||
w: |||||||||||
 F,16 |] %57
w: lo.|
w: |
w: |

